X:20
T:no name
R:barndance
D:Sharon Shannon: Out the Gap
Z:id:hn-barndance-20
M:C|
L:1/8
K:D
FG | ABAF A2de | fefa f2ed | ~B3d AFED | E2EF E2DF |
ABAF A2de | fefa f2ed | ~B3d AFEF | D2DE D2 :|
|: de | faaf a2fe | dcde ~f3e | fdfa bafa | e2ef e2de |
faab a2fe | dBde d2cB | AFdB AFEF | D2DE D2 :|

